src/icon/banking/convert/icon_convert_xl_white.svg

<svg width="36px" height="36px" viewBox="0 0 36 36" version="1.1" xmlns="http://www.w3.org/2000/svg"><g stroke="none" stroke-width="1" fill="none" fill-rule="evenodd"><rect x="0" y="0" width="36" height="36"/><polygon fill="#FFFFFF" fill-rule="nonzero" opacity="0.300000012" points="34.4359816 24.7957972 35.2042028 25.4359816 27 35.281025 18.7957972 25.4359816 19.5640184 24.7957972 27 33.718975"/><path d="M14.982441,15.2582802 L15.4808154,15.298566 L15.4002438,16.2953148 L14.9018694,16.255029 C7.57605274,15.6628513 4.02951465,18.6906472 4.02951465,25.5 C4.02951465,32.3045674 7.56863758,35.2500734 14.891255,34.5009809 L15.3886591,34.4500972 L15.4904265,35.4449055 L14.9930223,35.4957891 C7.09880773,36.3033551 3.02951465,32.9166044 3.02951465,25.5 C3.02951465,18.088181 7.0914036,14.6204133 14.982441,15.2582802 Z" fill="#FFFFFF" fill-rule="nonzero"/><polygon fill="#FFFFFF" fill-rule="nonzero" points="0.5 23.5 0.5 22.5 13.5 22.5 13.5 23.5"/><polygon fill="#FFFFFF" fill-rule="nonzero" points="0.5 28.5 0.5 27.5 13.5 27.5 13.5 28.5"/><polygon fill="#FFFFFF" fill-rule="nonzero" points="26.5 0.25 27.5 0.25 27.5 22.25 26.5 22.25"/><path d="M33.1415424,6.4060291 L32.1438061,6.4732762 C31.9744418,3.96044035 30.3145083,2.73417837 26.9499205,2.73417837 C23.721571,2.73417837 22.2671981,3.9337055 22.2671981,6.43965265 C22.2671981,8.64745443 23.7080827,9.77973433 27.3820723,11.1716001 C27.5836412,11.2479631 28.2726566,11.5059124 28.3130867,11.521122 C31.8145111,12.838344 33.1426742,13.7714871 33.1426742,15.7580667 C33.1426742,19.4968156 30.6231709,21.0255646 26.4428772,20.8054835 C22.8953103,20.6187137 20.8594311,18.9296073 20.4908012,15.8168689 L21.4838618,15.6992645 C21.7920344,18.3014975 23.4107104,19.6444632 26.4954517,19.8068665 C30.1743642,20.0005512 32.1426742,18.8062476 32.1426742,15.7580667 C32.1426742,14.3841018 31.0584258,13.6223287 27.960982,12.4570827 C27.9221722,12.4424826 27.2315549,12.1839336 27.0278,12.1067425 C22.9877204,10.5761859 21.2671981,9.22416039 21.2671981,6.43965265 C21.2671981,3.3342809 23.2072507,1.73417837 26.9499205,1.73417837 C30.7977409,1.73417837 32.9329766,3.31156591 33.1415424,6.4060291 Z" fill="#FFFFFF" fill-rule="nonzero"/><polygon fill="#FFFFFF" fill-rule="nonzero" opacity="0.300000012" points="9 2.27863175 1.56401844 11.2018096 0.79579716 10.5616252 9 0.716581813 17.2042028 10.5616252 16.4359816 11.2018096"/></g></svg>

<svg width="36" height="36" viewBox="0 0 36 36" xmlns="http://www.w3.org/2000/svg"><g fill="none" fill-rule="evenodd"><path d="M0 0h36v36H0z"/><path fill="#FFF" fill-rule="nonzero" opacity=".3" d="M34.436 24.796l.768.64L27 35.281l-8.204-9.845.768-.64L27 33.719z"/><path d="M14.982 15.258l.499.04-.08.997-.5-.04C7.577 15.663 4.03 18.691 4.03 25.5c0 6.805 3.539 9.75 10.861 9.001l.498-.05.101.994-.497.05C7.099 36.304 3.03 32.918 3.03 25.5c0-7.412 4.061-10.88 11.952-10.242z" fill="#FFF" fill-rule="nonzero"/><path fill="#FFF" fill-rule="nonzero" d="M.5 23.5v-1h13v1zM.5 28.5v-1h13v1zM26.5.25h1v22h-1z"/><path d="M33.142 6.406l-.998.067c-.17-2.513-1.83-3.739-5.194-3.739-3.228 0-4.683 1.2-4.683 3.706 0 2.207 1.441 3.34 5.115 4.732l.931.35c3.502 1.316 4.83 2.25 4.83 4.236 0 3.739-2.52 5.268-6.7 5.047-3.548-.186-5.584-1.875-5.952-4.988l.993-.118c.308 2.602 1.927 3.945 5.011 4.108 3.68.194 5.648-1 5.648-4.049 0-1.374-1.085-2.136-4.182-3.3-.039-.016-.73-.274-.933-.351-4.04-1.53-5.76-2.883-5.76-5.667 0-3.106 1.94-4.706 5.682-4.706 3.848 0 5.983 1.578 6.192 4.672z" fill="#FFF" fill-rule="nonzero"/><path fill="#FFF" fill-rule="nonzero" opacity=".3" d="M9 2.279l-7.436 8.923-.768-.64L9 .717l8.204 9.845-.768.64z"/></g></svg>
